X:3115
T:Jomfru i hindeham
C:anon.
O:Denmark
Z:Transcribed by Frank Nordberg - http://www.musicaviva.com
F:http://abc.musicaviva.com/tunes/denmark/jomfru-i-hindeham.abc
M:4/2 %org.: C|
L:1/2
K:Ephrg
E|EG A/A/A|c>d Bc|d2 Hd e|(d/c/)B AB|
w:* Mo-der l\aer-te hun s\on-nen sin. I sko-ve. Du sky--de ej den
c>d BA|G2A2|c2 GF|D2 E2|]
w:li-den hind som gul-det b\aer' un-der bo-ve.
W:
W:Moder l\aerte hun s\onnen sin.
W:I skove.
W:Du skyde ej den liden hind
W:som guldet b\aer' under bove.
W:
W:
W:  From Musica Viva - http://www.musicaviva.com
W:  the Internet center for free sheet music downloads.



